!! 00019] TT[TB
!! Zh. Ch. BM 00625, NN), BZ 1289)
!!!OTL: Wo yiren kanle yi tai xi
!!!ARE: Asia, China, Shanxi
!! Ethnic Group: Han
!! MM,
!!!SCT: C0817A
!!!YEM: Copyright 1995, estate of Helmut Schaffrath.
**kern
*ICvox
*Ivox
*M2/4
*k[b-]
*F:
{4f
8.g
16cc
=1
8f
16g
16f
8c
8c
=2
4f
8.g
16dd
=3
8cc
16dd
16cc
8g
8e}
=4
{8cc
16g
16cc
8g
8f
=5
16g
16f
4c
8c
=6
4d
4G
=7
8f
16d
16c
8c
8c}
=8
{8f
16c
16f
16g
16cc
8f
=9
2g
=10
4cc
4dd
=11
16cc
16g
[4.cc
=12
2cc]}
=13
{8cc
16g
16cc
16g
16a
16g
16f
=14
16g
16f
8c
4f
=15
8f
16e
16f
16g
16cc
16f
16g
=16
2c}
=17
{8f
16d
16c
16d
16c
8G
=18
8c
4.c}
=19
{4f
8.g
16cc
=20
8f
16g
16f
8c
8c
=21
4f
8.g
16dd
=22
8cc
16dd
16cc
8g
8e}
=23
{8cc
16g
16cc
8g
8f
=24
16g
16f
4c
8c
=25
4d
4G
=26
8f
16d
16c
8c
8c}
=27
{8f
16c
16f
16g
16cc
8f
=28
2g
=29
4cc
4dd
=30
16cc
16g
[4.cc
=31
2cc]}
=32
{8cc
16g
16cc
16g
16a
16g
16f
=33
16g
16f
8c
4f
=34
8f
16e
16f
16g
16cc
16f
16g
=35
2c}
=36
{4r
4r
=37
8dd
16dd
16cc
16dd
16cc
8g
=38
8cc
4.cc}
=39
{8.cc
16cc
8b-
8cc
=40
4dd
16dd
16cc
8g
=41
[2cc
=42
2cc]}
==
!!!AGN: Xiaodiao, Erge
!! Textbeilage kopiert.  Fortsetzung der Platte auf Band 20
!!    +++Dieses Lied ist GETEILT! Der zweite Teil ist im folgenden Dokument
!!    unter gleicher Signatur B kodiert.
!!!ONB: ESAC (Essen Associative Code) Database: CHINA
!!!AMT: simple duple
!!!AIN: vox
!!!EED: Helmut Schaffrath
!!!EEV: 1.0
*-
!!!ONB: Tied note syntax fixed by Craig Sapp, 2004/05/03/
